packages/vibrant-icons/assets/icons/Heart/Regular.svg

<svg width="24" height="24" viewBox="0 0 24 24" fill="none" xmlns="http://www.w3.org/2000/svg">
<path d="M2.33848 13.2284C1.04998 11.8849 0.362475 10.1124 0.401475 8.2389C0.440475 6.3649 1.20197 4.6239 2.54548 3.3354C3.84648 2.0874 5.56197 1.3999 7.37647 1.3999C9.08747 1.3999 10.726 2.0149 12 3.1344C13.274 2.0149 14.9125 1.3999 16.6235 1.3999C18.438 1.3999 20.154 2.0874 21.4545 3.3354C22.798 4.6239 23.559 6.3649 23.5985 8.2389C23.638 10.1129 22.95 11.8849 21.662 13.2279L12.0005 23.1434L2.33848 13.2284V13.2284ZM7.37647 3.5999C6.13247 3.5999 4.95747 4.0699 4.06797 4.9229C2.15897 6.7539 2.09597 9.7964 3.92647 11.7054L12.0005 19.9909L20.086 11.6934C21.91 9.7909 21.8415 6.7539 19.9325 4.9229C19.0435 4.0699 17.8685 3.5999 16.624 3.5999C15.3795 3.5999 14.285 4.0364 13.407 4.8279L12.001 6.0959L10.595 4.8279C9.71647 4.0364 8.57397 3.5999 7.37797 3.5999H7.37647V3.5999Z" fill="#0C0C0C" />
</svg>

<svg xmlns="http://www.w3.org/2000/svg" width="24" height="24" fill="none"><path fill="#0C0C0C" d="M2.338 13.228a6.95 6.95 0 0 1-1.937-4.99 6.95 6.95 0 0 1 2.144-4.903A6.94 6.94 0 0 1 7.376 1.4 7 7 0 0 1 12 3.134 7 7 0 0 1 16.624 1.4c1.814 0 3.53.687 4.83 1.935A6.95 6.95 0 0 1 23.6 8.24a6.95 6.95 0 0 1-1.937 4.989l-9.661 9.915zM7.376 3.6c-1.244 0-2.419.47-3.308 1.323a4.803 4.803 0 0 0-.142 6.782l8.075 8.286 8.085-8.298c1.824-1.902 1.756-4.94-.153-6.77A4.75 4.75 0 0 0 16.624 3.6a4.7 4.7 0 0 0-3.217 1.228l-1.406 1.268-1.406-1.268A4.8 4.8 0 0 0 7.378 3.6z"/></svg>
